X:1
T:Title
L:1/8
M:6/8
I:linebreak $
K:G
V:1 treble nm="Voice"
V:1
"G" gfe d2 c | B2 A B2 G |"D" FGA Bcd | edc"G" d2 G |"G" gfe d2 c | B2 A B2 G |"D" FGA Bcd |1 %7
 gfF"G" G2 G :|2 gfF"G" G2 G |:"C" cAF"D" DFA | edc"G" d2 B |"C" cAF"D" DFA | cBA"G" d2 B | %13
"C" cAF"D" DFA | edc"G" d2 B |"C" cAF"D" DFA |1"G" GBA G2 G :|2"G" GBA G2 G |] %18
